X:1
T:Go Ye Into All the World
T:Go Ye Into All the World
T:James McGranahan
T:James McGranahan, 1886
T:Public Domain Courtesy of the Cyber Hymnal™
T:Public Domain Courtesy of the Cyber Hymnal™
C:James McGranahan
Z:Public Domain
Z:Courtesy of the Cyber Hymnal™
%%score ( 1 2 ) ( 3 4 )
L:1/8
Q:1/4=100
M:4/4
K:A
V:1 treble 
V:2 treble 
V:3 bass 
V:4 bass 
V:1
 [Ec]2 [FA]>[DF] [CE]3 [A,C] | EFGA [Ec]2 [EB]2 | [EB]2 [EB]>[E^A] [EB]3 [EB] | %3
w: 1.~Far, far a- way, in|hea- then dark- ness dwell- ing,|Mill- ions of souls for-|
w: 2.~See o’er the world wide|o- pen doors in- vit- ing,|Sol- diers of Christ, a-|
w: 3.~“Why will you die?” the|voice of God is call- ing.|“Why will you die?” re-|
w: 4.~God speed the day, when|those of ev- ery na- tion|“Glor- y to God!” tri-|
 [Ec][EA] [^DA]>[DF] E4 | [Ec]2 [FA]>[DF] [CE]3 [A,C] | EFGA [Ac]2 [GB]2 | %6
w: ev- er may be lost;|Who, who will go, sal-|va- tion’s sto- ry tell- ing,|
w: rise and en- ter in!|Christ- ians, a- wake! your|forc- es all u- nit- ing,|
w: e- cho in His name;|Je- sus has died to|save from death ap- pall- ing,|
w: umph- ant- ly shall sing.|Ran- somed, re- deemed, re-|joic- ing in sal- va- tion,|
 [Gd]2 [Gc]>[GB] [Ac][EA][FA][DF] | [CE]2 [DG]2 [CA]4 ||"^Refrain" [CE]4 [CA]2 [EG]2 | %9
w: Look- ing to Je- sus, heed- ing|not the cost?||
w: Send forth the Gos- pel, break the|chains of sin.||
w: Life and sal- va- tion, there- fore|go pro- claim.||
w: Shout Hal- le- lu- jah, for the|Lord is king.||
 [EG]>[DF] [DF]>[DF] [DF]4 | [^DF]4 [DB]2 [FA]2 | [FA]>[EG] [EG]>[EG] [EG]4 | EEFG A>A A[Ac] | %13
w: ||||
w: ||||
w: ||||
w: ||||
 [Ac]2 [GB]2 [Fd]2 [Ec][=Ge] | [=Ge]2 [Fd][DB] [CA]2 [E^G] | [DB]4 [CA]4 |] %16
w: |||
w: |||
w: |||
w: |||
V:2
 x8 | EFGA x4 | x8 | x4 E4 | x8 | EFGA x4 | x8 | x8 || x8 | x8 | x8 | x8 | x8 | x8 | x7 | x8 |] %16
V:3
 [A,,A,]2 [D,A,]>[D,A,] [A,,A,]3 [A,,E,] | E,F,G,A, [E,A,]2 [E,G,]2 | %2
w: ~ ~ ~ ~ ~|~ ~ ~ ~ ~ ~|
 [E,G,]2 [E,G,]>[E,F,] [E,G,]3 [E,G,] | [A,,A,][A,,C] [B,,B,]>[B,,A,] [E,G,]4 | %4
w: ~ ~ ~ ~ ~|~ ~ ~ ~ ~|
 [A,,A,]2 [D,A,]>[D,A,] [A,,A,]3 [A,,E,] | E,F,G,A, [E,E]2 [E,E]2 | %6
w: ~ ~ ~ ~ ~|~ ~ ~ ~ ~ ~|
 [E,E]2 [E,E]>[E,E] [F,E][A,C][D,D][D,B,] | [E,A,]2 (B,E,) [A,,E,]4 || [A,,A,]4 [A,,E,]2 [C,A,]2 | %9
w: ~ ~ ~ ~ ~ ~ ~|~ ~ * ~|“All power is|
 [D,A,]>[D,A,] [D,A,]>[D,A,] [D,A,]4 | [B,,B,]4 [B,,F,]2 [^D,B,]2 | %11
w: giv- en un- to Me,|All power is|
 [E,B,]>[E,B,] [E,B,]>[E,B,] [E,B,]4 | E,E,F,G, A,>A, A,[A,E] | [E,E]2 [E,E]2 A,2 A,[C,A,] | %14
w: giv- en un- to Me,|Go ye in- to all the world and|preach the Gos- pel, And|
 [D,A,]2 [D,A,][D,A,] [E,A,]2 [E,B,] | [E,G,]4 [A,,A,]4 |] %16
w: lo, I am with you|al- ways.”|
V:4
 x8 | E,F,G,A, x4 | x8 | x8 | x8 | E,F,G,A, x4 | x8 | x2 E,2 x4 || x8 | x8 | x8 | x8 | x8 | x8 | %14
 x7 | x8 |] %16

